(Generated by PartKam Version 0.05)

G20 G90 G40

(profile 1)
G0 Z0.5
T0 M6
G17
M3
G0 X11.375 Y5.8875
G1 Z-0.05 F30
G3 X11.3868 Y5.7624 I0.6675 J0 F60
G3 X11.4211 Y5.6477 I0.5769 J0.11
G3 X11.478 Y5.5423 I0.5426 J0.2248
G3 X11.5581 Y5.4456 I0.5521 J0.3752
G3 X11.6548 Y5.3655 I0.472 J0.472
G3 X11.7602 Y5.3086 I0.3301 J0.4858
G3 X11.8749 Y5.2743 I0.2248 J0.5426
G3 X12 Y5.2625 I0.1251 J0.6557
G3 X12.1251 Y5.2743 I0 J0.6675
G3 X12.2398 Y5.3086 I-0.11 J0.5769
G3 X12.3452 Y5.3655 I-0.2248 J0.5426
G3 X12.4419 Y5.4456 I-0.3752 J0.5521
G3 X12.522 Y5.5423 I-0.472 J0.472
G3 X12.5789 Y5.6477 I-0.4858 J0.3301
G3 X12.6132 Y5.7624 I-0.5426 J0.2248
G3 X12.625 Y5.8875 I-0.6557 J0.1251
G3 X12.6132 Y6.0126 I-0.6675 J0
G3 X12.5789 Y6.1273 I-0.5769 J-0.11
G3 X12.522 Y6.2327 I-0.5426 J-0.2248
G3 X12.4419 Y6.3294 I-0.5521 J-0.3752
G3 X12.3452 Y6.4095 I-0.472 J-0.472
G3 X12.2398 Y6.4664 I-0.3301 J-0.4858
G3 X12.1251 Y6.5007 I-0.2248 J-0.5426
G3 X12 Y6.5125 I-0.1251 J-0.6557
G3 X11.8749 Y6.5007 I0 J-0.6675
G3 X11.7602 Y6.4664 I0.11 J-0.5769
G3 X11.6548 Y6.4095 I0.2248 J-0.5426
G3 X11.5581 Y6.3294 I0.3752 J-0.5521
G3 X11.478 Y6.2327 I0.472 J-0.472
G3 X11.4211 Y6.1273 I0.4858 J-0.3301
G3 X11.3868 Y6.0126 I0.5426 J-0.2248
G3 X11.375 Y5.8875 I0.6557 J-0.1251
G1 Z-0.1 F30
G3 X11.3868 Y5.7624 I0.6675 J0 F60
G3 X11.4211 Y5.6477 I0.5769 J0.11
G3 X11.478 Y5.5423 I0.5426 J0.2248
G3 X11.5581 Y5.4456 I0.5521 J0.3752
G3 X11.6548 Y5.3655 I0.472 J0.472
G3 X11.7602 Y5.3086 I0.3301 J0.4858
G3 X11.8749 Y5.2743 I0.2248 J0.5426
G3 X12 Y5.2625 I0.1251 J0.6557
G3 X12.1251 Y5.2743 I0 J0.6675
G3 X12.2398 Y5.3086 I-0.11 J0.5769
G3 X12.3452 Y5.3655 I-0.2248 J0.5426
G3 X12.4419 Y5.4456 I-0.3752 J0.5521
G3 X12.522 Y5.5423 I-0.472 J0.472
G3 X12.5789 Y5.6477 I-0.4858 J0.3301
G3 X12.6132 Y5.7624 I-0.5426 J0.2248
G3 X12.625 Y5.8875 I-0.6557 J0.1251
G3 X12.6132 Y6.0126 I-0.6675 J0
G3 X12.5789 Y6.1273 I-0.5769 J-0.11
G3 X12.522 Y6.2327 I-0.5426 J-0.2248
G3 X12.4419 Y6.3294 I-0.5521 J-0.3752
G3 X12.3452 Y6.4095 I-0.472 J-0.472
G3 X12.2398 Y6.4664 I-0.3301 J-0.4858
G3 X12.1251 Y6.5007 I-0.2248 J-0.5426
G3 X12 Y6.5125 I-0.1251 J-0.6557
G3 X11.8749 Y6.5007 I0 J-0.6675
G3 X11.7602 Y6.4664 I0.11 J-0.5769
G3 X11.6548 Y6.4095 I0.2248 J-0.5426
G3 X11.5581 Y6.3294 I0.3752 J-0.5521
G3 X11.478 Y6.2327 I0.472 J-0.472
G3 X11.4211 Y6.1273 I0.4858 J-0.3301
G3 X11.3868 Y6.0126 I0.5426 J-0.2248
G3 X11.375 Y5.8875 I0.6557 J-0.1251
G1 Z-0.15 F30
G3 X11.3868 Y5.7624 I0.6675 J0 F60
G3 X11.4211 Y5.6477 I0.5769 J0.11
G3 X11.478 Y5.5423 I0.5426 J0.2248
G3 X11.5581 Y5.4456 I0.5521 J0.3752
G3 X11.6548 Y5.3655 I0.472 J0.472
G3 X11.7602 Y5.3086 I0.3301 J0.4858
G3 X11.8749 Y5.2743 I0.2248 J0.5426
G3 X12 Y5.2625 I0.1251 J0.6557
G3 X12.1251 Y5.2743 I0 J0.6675
G3 X12.2398 Y5.3086 I-0.11 J0.5769
G3 X12.3452 Y5.3655 I-0.2248 J0.5426
G3 X12.4419 Y5.4456 I-0.3752 J0.5521
G3 X12.522 Y5.5423 I-0.472 J0.472
G3 X12.5789 Y5.6477 I-0.4858 J0.3301
G3 X12.6132 Y5.7624 I-0.5426 J0.2248
G3 X12.625 Y5.8875 I-0.6557 J0.1251
G3 X12.6132 Y6.0126 I-0.6675 J0
G3 X12.5789 Y6.1273 I-0.5769 J-0.11
G3 X12.522 Y6.2327 I-0.5426 J-0.2248
G3 X12.4419 Y6.3294 I-0.5521 J-0.3752
G3 X12.3452 Y6.4095 I-0.472 J-0.472
G3 X12.2398 Y6.4664 I-0.3301 J-0.4858
G3 X12.1251 Y6.5007 I-0.2248 J-0.5426
G3 X12 Y6.5125 I-0.1251 J-0.6557
G3 X11.8749 Y6.5007 I0 J-0.6675
G3 X11.7602 Y6.4664 I0.11 J-0.5769
G3 X11.6548 Y6.4095 I0.2248 J-0.5426
G3 X11.5581 Y6.3294 I0.3752 J-0.5521
G3 X11.478 Y6.2327 I0.472 J-0.472
G3 X11.4211 Y6.1273 I0.4858 J-0.3301
G3 X11.3868 Y6.0126 I0.5426 J-0.2248
G3 X11.375 Y5.8875 I0.6557 J-0.1251
G1 Z-0.2 F30
G3 X11.3868 Y5.7624 I0.6675 J0 F60
G3 X11.4211 Y5.6477 I0.5769 J0.11
G3 X11.478 Y5.5423 I0.5426 J0.2248
G3 X11.5581 Y5.4456 I0.5521 J0.3752
G3 X11.6548 Y5.3655 I0.472 J0.472
G3 X11.7602 Y5.3086 I0.3301 J0.4858
G3 X11.8749 Y5.2743 I0.2248 J0.5426
G3 X12 Y5.2625 I0.1251 J0.6557
G3 X12.1251 Y5.2743 I0 J0.6675
G3 X12.2398 Y5.3086 I-0.11 J0.5769
G3 X12.3452 Y5.3655 I-0.2248 J0.5426
G3 X12.4419 Y5.4456 I-0.3752 J0.5521
G3 X12.522 Y5.5423 I-0.472 J0.472
G3 X12.5789 Y5.6477 I-0.4858 J0.3301
G3 X12.6132 Y5.7624 I-0.5426 J0.2248
G3 X12.625 Y5.8875 I-0.6557 J0.1251
G3 X12.6132 Y6.0126 I-0.6675 J0
G3 X12.5789 Y6.1273 I-0.5769 J-0.11
G3 X12.522 Y6.2327 I-0.5426 J-0.2248
G3 X12.4419 Y6.3294 I-0.5521 J-0.3752
G3 X12.3452 Y6.4095 I-0.472 J-0.472
G3 X12.2398 Y6.4664 I-0.3301 J-0.4858
G3 X12.1251 Y6.5007 I-0.2248 J-0.5426
G3 X12 Y6.5125 I-0.1251 J-0.6557
G3 X11.8749 Y6.5007 I0 J-0.6675
G3 X11.7602 Y6.4664 I0.11 J-0.5769
G3 X11.6548 Y6.4095 I0.2248 J-0.5426
G3 X11.5581 Y6.3294 I0.3752 J-0.5521
G3 X11.478 Y6.2327 I0.472 J-0.472
G3 X11.4211 Y6.1273 I0.4858 J-0.3301
G3 X11.3868 Y6.0126 I0.5426 J-0.2248
G3 X11.375 Y5.8875 I0.6557 J-0.1251
G1 Z-0.25 F30
G3 X11.3868 Y5.7624 I0.6675 J0 F60
G3 X11.4211 Y5.6477 I0.5769 J0.11
G3 X11.478 Y5.5423 I0.5426 J0.2248
G3 X11.5581 Y5.4456 I0.5521 J0.3752
G3 X11.6548 Y5.3655 I0.472 J0.472
G3 X11.7602 Y5.3086 I0.3301 J0.4858
G3 X11.8749 Y5.2743 I0.2248 J0.5426
G3 X12 Y5.2625 I0.1251 J0.6557
G3 X12.1251 Y5.2743 I0 J0.6675
G3 X12.2398 Y5.3086 I-0.11 J0.5769
G3 X12.3452 Y5.3655 I-0.2248 J0.5426
G3 X12.4419 Y5.4456 I-0.3752 J0.5521
G3 X12.522 Y5.5423 I-0.472 J0.472
G3 X12.5789 Y5.6477 I-0.4858 J0.3301
G3 X12.6132 Y5.7624 I-0.5426 J0.2248
G3 X12.625 Y5.8875 I-0.6557 J0.1251
G3 X12.6132 Y6.0126 I-0.6675 J0
G3 X12.5789 Y6.1273 I-0.5769 J-0.11
G3 X12.522 Y6.2327 I-0.5426 J-0.2248
G3 X12.4419 Y6.3294 I-0.5521 J-0.3752
G3 X12.3452 Y6.4095 I-0.472 J-0.472
G3 X12.2398 Y6.4664 I-0.3301 J-0.4858
G3 X12.1251 Y6.5007 I-0.2248 J-0.5426
G3 X12 Y6.5125 I-0.1251 J-0.6557
G3 X11.8749 Y6.5007 I0 J-0.6675
G3 X11.7602 Y6.4664 I0.11 J-0.5769
G3 X11.6548 Y6.4095 I0.2248 J-0.5426
G3 X11.5581 Y6.3294 I0.3752 J-0.5521
G3 X11.478 Y6.2327 I0.472 J-0.472
G3 X11.4211 Y6.1273 I0.4858 J-0.3301
G3 X11.3868 Y6.0126 I0.5426 J-0.2248
G3 X11.375 Y5.8875 I0.6557 J-0.1251
G1 Z-0.3 F30
G3 X11.3868 Y5.7624 I0.6675 J0 F60
G3 X11.4211 Y5.6477 I0.5769 J0.11
G3 X11.478 Y5.5423 I0.5426 J0.2248
G3 X11.5581 Y5.4456 I0.5521 J0.3752
G3 X11.6548 Y5.3655 I0.472 J0.472
G3 X11.7602 Y5.3086 I0.3301 J0.4858
G3 X11.8749 Y5.2743 I0.2248 J0.5426
G3 X12 Y5.2625 I0.1251 J0.6557
G3 X12.1251 Y5.2743 I0 J0.6675
G3 X12.2398 Y5.3086 I-0.11 J0.5769
G3 X12.3452 Y5.3655 I-0.2248 J0.5426
G3 X12.4419 Y5.4456 I-0.3752 J0.5521
G3 X12.522 Y5.5423 I-0.472 J0.472
G3 X12.5789 Y5.6477 I-0.4858 J0.3301
G3 X12.6132 Y5.7624 I-0.5426 J0.2248
G3 X12.625 Y5.8875 I-0.6557 J0.1251
G3 X12.6132 Y6.0126 I-0.6675 J0
G3 X12.5789 Y6.1273 I-0.5769 J-0.11
G3 X12.522 Y6.2327 I-0.5426 J-0.2248
G3 X12.4419 Y6.3294 I-0.5521 J-0.3752
G3 X12.3452 Y6.4095 I-0.472 J-0.472
G3 X12.2398 Y6.4664 I-0.3301 J-0.4858
G3 X12.1251 Y6.5007 I-0.2248 J-0.5426
G3 X12 Y6.5125 I-0.1251 J-0.6557
G3 X11.8749 Y6.5007 I0 J-0.6675
G3 X11.7602 Y6.4664 I0.11 J-0.5769
G3 X11.6548 Y6.4095 I0.2248 J-0.5426
G3 X11.5581 Y6.3294 I0.3752 J-0.5521
G3 X11.478 Y6.2327 I0.472 J-0.472
G3 X11.4211 Y6.1273 I0.4858 J-0.3301
G3 X11.3868 Y6.0126 I0.5426 J-0.2248
G3 X11.375 Y5.8875 I0.6557 J-0.1251
G1 Z-0.35 F30
G3 X11.3868 Y5.7624 I0.6675 J0 F60
G3 X11.4211 Y5.6477 I0.5769 J0.11
G3 X11.478 Y5.5423 I0.5426 J0.2248
G3 X11.5581 Y5.4456 I0.5521 J0.3752
G3 X11.6548 Y5.3655 I0.472 J0.472
G3 X11.7602 Y5.3086 I0.3301 J0.4858
G3 X11.8749 Y5.2743 I0.2248 J0.5426
G3 X12 Y5.2625 I0.1251 J0.6557
G3 X12.1251 Y5.2743 I0 J0.6675
G3 X12.2398 Y5.3086 I-0.11 J0.5769
G3 X12.3452 Y5.3655 I-0.2248 J0.5426
G3 X12.4419 Y5.4456 I-0.3752 J0.5521
G3 X12.522 Y5.5423 I-0.472 J0.472
G3 X12.5789 Y5.6477 I-0.4858 J0.3301
G3 X12.6132 Y5.7624 I-0.5426 J0.2248
G3 X12.625 Y5.8875 I-0.6557 J0.1251
G3 X12.6132 Y6.0126 I-0.6675 J0
G3 X12.5789 Y6.1273 I-0.5769 J-0.11
G3 X12.522 Y6.2327 I-0.5426 J-0.2248
G3 X12.4419 Y6.3294 I-0.5521 J-0.3752
G3 X12.3452 Y6.4095 I-0.472 J-0.472
G3 X12.2398 Y6.4664 I-0.3301 J-0.4858
G3 X12.1251 Y6.5007 I-0.2248 J-0.5426
G3 X12 Y6.5125 I-0.1251 J-0.6557
G3 X11.8749 Y6.5007 I0 J-0.6675
G3 X11.7602 Y6.4664 I0.11 J-0.5769
G3 X11.6548 Y6.4095 I0.2248 J-0.5426
G3 X11.5581 Y6.3294 I0.3752 J-0.5521
G3 X11.478 Y6.2327 I0.472 J-0.472
G3 X11.4211 Y6.1273 I0.4858 J-0.3301
G3 X11.3868 Y6.0126 I0.5426 J-0.2248
G3 X11.375 Y5.8875 I0.6557 J-0.1251
G1 Z-0.4 F30
G3 X11.3868 Y5.7624 I0.6675 J0 F60
G3 X11.4211 Y5.6477 I0.5769 J0.11
G3 X11.478 Y5.5423 I0.5426 J0.2248
G3 X11.5581 Y5.4456 I0.5521 J0.3752
G3 X11.6548 Y5.3655 I0.472 J0.472
G3 X11.7602 Y5.3086 I0.3301 J0.4858
G3 X11.8749 Y5.2743 I0.2248 J0.5426
G3 X12 Y5.2625 I0.1251 J0.6557
G3 X12.1251 Y5.2743 I0 J0.6675
G3 X12.2398 Y5.3086 I-0.11 J0.5769
G3 X12.3452 Y5.3655 I-0.2248 J0.5426
G3 X12.4419 Y5.4456 I-0.3752 J0.5521
G3 X12.522 Y5.5423 I-0.472 J0.472
G3 X12.5789 Y5.6477 I-0.4858 J0.3301
G3 X12.6132 Y5.7624 I-0.5426 J0.2248
G3 X12.625 Y5.8875 I-0.6557 J0.1251
G3 X12.6132 Y6.0126 I-0.6675 J0
G3 X12.5789 Y6.1273 I-0.5769 J-0.11
G3 X12.522 Y6.2327 I-0.5426 J-0.2248
G3 X12.4419 Y6.3294 I-0.5521 J-0.3752
G3 X12.3452 Y6.4095 I-0.472 J-0.472
G3 X12.2398 Y6.4664 I-0.3301 J-0.4858
G3 X12.1251 Y6.5007 I-0.2248 J-0.5426
G3 X12 Y6.5125 I-0.1251 J-0.6557
G3 X11.8749 Y6.5007 I0 J-0.6675
G3 X11.7602 Y6.4664 I0.11 J-0.5769
G3 X11.6548 Y6.4095 I0.2248 J-0.5426
G3 X11.5581 Y6.3294 I0.3752 J-0.5521
G3 X11.478 Y6.2327 I0.472 J-0.472
G3 X11.4211 Y6.1273 I0.4858 J-0.3301
G3 X11.3868 Y6.0126 I0.5426 J-0.2248
G3 X11.375 Y5.8875 I0.6557 J-0.1251
G1 Z-0.45 F30
G3 X11.3868 Y5.7624 I0.6675 J0 F60
G3 X11.4211 Y5.6477 I0.5769 J0.11
G3 X11.478 Y5.5423 I0.5426 J0.2248
G3 X11.5581 Y5.4456 I0.5521 J0.3752
G3 X11.6548 Y5.3655 I0.472 J0.472
G3 X11.7602 Y5.3086 I0.3301 J0.4858
G3 X11.8749 Y5.2743 I0.2248 J0.5426
G3 X12 Y5.2625 I0.1251 J0.6557
G3 X12.1251 Y5.2743 I0 J0.6675
G3 X12.2398 Y5.3086 I-0.11 J0.5769
G3 X12.3452 Y5.3655 I-0.2248 J0.5426
G3 X12.4419 Y5.4456 I-0.3752 J0.5521
G3 X12.522 Y5.5423 I-0.472 J0.472
G3 X12.5789 Y5.6477 I-0.4858 J0.3301
G3 X12.6132 Y5.7624 I-0.5426 J0.2248
G3 X12.625 Y5.8875 I-0.6557 J0.1251
G3 X12.6132 Y6.0126 I-0.6675 J0
G3 X12.5789 Y6.1273 I-0.5769 J-0.11
G3 X12.522 Y6.2327 I-0.5426 J-0.2248
G3 X12.4419 Y6.3294 I-0.5521 J-0.3752
G3 X12.3452 Y6.4095 I-0.472 J-0.472
G3 X12.2398 Y6.4664 I-0.3301 J-0.4858
G3 X12.1251 Y6.5007 I-0.2248 J-0.5426
G3 X12 Y6.5125 I-0.1251 J-0.6557
G3 X11.8749 Y6.5007 I0 J-0.6675
G3 X11.7602 Y6.4664 I0.11 J-0.5769
G3 X11.6548 Y6.4095 I0.2248 J-0.5426
G3 X11.5581 Y6.3294 I0.3752 J-0.5521
G3 X11.478 Y6.2327 I0.472 J-0.472
G3 X11.4211 Y6.1273 I0.4858 J-0.3301
G3 X11.3868 Y6.0126 I0.5426 J-0.2248
G3 X11.375 Y5.8875 I0.6557 J-0.1251
G1 Z-0.5 F30
G3 X11.3868 Y5.7624 I0.6675 J0 F60
G3 X11.4211 Y5.6477 I0.5769 J0.11
G3 X11.478 Y5.5423 I0.5426 J0.2248
G3 X11.5581 Y5.4456 I0.5521 J0.3752
G3 X11.6548 Y5.3655 I0.472 J0.472
G3 X11.7602 Y5.3086 I0.3301 J0.4858
G3 X11.8749 Y5.2743 I0.2248 J0.5426
G3 X12 Y5.2625 I0.1251 J0.6557
G3 X12.1251 Y5.2743 I0 J0.6675
G3 X12.2398 Y5.3086 I-0.11 J0.5769
G3 X12.3452 Y5.3655 I-0.2248 J0.5426
G3 X12.4419 Y5.4456 I-0.3752 J0.5521
G3 X12.522 Y5.5423 I-0.472 J0.472
G3 X12.5789 Y5.6477 I-0.4858 J0.3301
G3 X12.6132 Y5.7624 I-0.5426 J0.2248
G3 X12.625 Y5.8875 I-0.6557 J0.1251
G3 X12.6132 Y6.0126 I-0.6675 J0
G3 X12.5789 Y6.1273 I-0.5769 J-0.11
G3 X12.522 Y6.2327 I-0.5426 J-0.2248
G3 X12.4419 Y6.3294 I-0.5521 J-0.3752
G3 X12.3452 Y6.4095 I-0.472 J-0.472
G3 X12.2398 Y6.4664 I-0.3301 J-0.4858
G3 X12.1251 Y6.5007 I-0.2248 J-0.5426
G3 X12 Y6.5125 I-0.1251 J-0.6557
G3 X11.8749 Y6.5007 I0 J-0.6675
G3 X11.7602 Y6.4664 I0.11 J-0.5769
G3 X11.6548 Y6.4095 I0.2248 J-0.5426
G3 X11.5581 Y6.3294 I0.3752 J-0.5521
G3 X11.478 Y6.2327 I0.472 J-0.472
G3 X11.4211 Y6.1273 I0.4858 J-0.3301
G3 X11.3868 Y6.0126 I0.5426 J-0.2248
G3 X11.375 Y5.8875 I0.6557 J-0.1251
G1 Z-0.55 F30
G3 X11.3868 Y5.7624 I0.6675 J0 F60
G3 X11.4211 Y5.6477 I0.5769 J0.11
G3 X11.478 Y5.5423 I0.5426 J0.2248
G3 X11.5581 Y5.4456 I0.5521 J0.3752
G3 X11.6548 Y5.3655 I0.472 J0.472
G3 X11.7602 Y5.3086 I0.3301 J0.4858
G3 X11.8749 Y5.2743 I0.2248 J0.5426
G3 X12 Y5.2625 I0.1251 J0.6557
G3 X12.1251 Y5.2743 I0 J0.6675
G3 X12.2398 Y5.3086 I-0.11 J0.5769
G3 X12.3452 Y5.3655 I-0.2248 J0.5426
G3 X12.4419 Y5.4456 I-0.3752 J0.5521
G3 X12.522 Y5.5423 I-0.472 J0.472
G3 X12.5789 Y5.6477 I-0.4858 J0.3301
G3 X12.6132 Y5.7624 I-0.5426 J0.2248
G3 X12.625 Y5.8875 I-0.6557 J0.1251
G3 X12.6132 Y6.0126 I-0.6675 J0
G3 X12.5789 Y6.1273 I-0.5769 J-0.11
G3 X12.522 Y6.2327 I-0.5426 J-0.2248
G3 X12.4419 Y6.3294 I-0.5521 J-0.3752
G3 X12.3452 Y6.4095 I-0.472 J-0.472
G3 X12.2398 Y6.4664 I-0.3301 J-0.4858
G3 X12.1251 Y6.5007 I-0.2248 J-0.5426
G3 X12 Y6.5125 I-0.1251 J-0.6557
G3 X11.8749 Y6.5007 I0 J-0.6675
G3 X11.7602 Y6.4664 I0.11 J-0.5769
G3 X11.6548 Y6.4095 I0.2248 J-0.5426
G3 X11.5581 Y6.3294 I0.3752 J-0.5521
G3 X11.478 Y6.2327 I0.472 J-0.472
G3 X11.4211 Y6.1273 I0.4858 J-0.3301
G3 X11.3868 Y6.0126 I0.5426 J-0.2248
G3 X11.375 Y5.8875 I0.6557 J-0.1251
G1 Z-0.6 F30
G3 X11.3868 Y5.7624 I0.6675 J0 F60
G3 X11.4211 Y5.6477 I0.5769 J0.11
G3 X11.478 Y5.5423 I0.5426 J0.2248
G3 X11.5581 Y5.4456 I0.5521 J0.3752
G3 X11.6548 Y5.3655 I0.472 J0.472
G3 X11.7602 Y5.3086 I0.3301 J0.4858
G3 X11.8749 Y5.2743 I0.2248 J0.5426
G3 X12 Y5.2625 I0.1251 J0.6557
G3 X12.1251 Y5.2743 I0 J0.6675
G3 X12.2398 Y5.3086 I-0.11 J0.5769
G3 X12.3452 Y5.3655 I-0.2248 J0.5426
G3 X12.4419 Y5.4456 I-0.3752 J0.5521
G3 X12.522 Y5.5423 I-0.472 J0.472
G3 X12.5789 Y5.6477 I-0.4858 J0.3301
G3 X12.6132 Y5.7624 I-0.5426 J0.2248
G3 X12.625 Y5.8875 I-0.6557 J0.1251
G3 X12.6132 Y6.0126 I-0.6675 J0
G3 X12.5789 Y6.1273 I-0.5769 J-0.11
G3 X12.522 Y6.2327 I-0.5426 J-0.2248
G3 X12.4419 Y6.3294 I-0.5521 J-0.3752
G3 X12.3452 Y6.4095 I-0.472 J-0.472
G3 X12.2398 Y6.4664 I-0.3301 J-0.4858
G3 X12.1251 Y6.5007 I-0.2248 J-0.5426
G3 X12 Y6.5125 I-0.1251 J-0.6557
G3 X11.8749 Y6.5007 I0 J-0.6675
G3 X11.7602 Y6.4664 I0.11 J-0.5769
G3 X11.6548 Y6.4095 I0.2248 J-0.5426
G3 X11.5581 Y6.3294 I0.3752 J-0.5521
G3 X11.478 Y6.2327 I0.472 J-0.472
G3 X11.4211 Y6.1273 I0.4858 J-0.3301
G3 X11.3868 Y6.0126 I0.5426 J-0.2248
G3 X11.375 Y5.8875 I0.6557 J-0.1251
G1 Z-0.65 F30
G3 X11.3868 Y5.7624 I0.6675 J0 F60
G3 X11.4211 Y5.6477 I0.5769 J0.11
G3 X11.478 Y5.5423 I0.5426 J0.2248
G3 X11.5581 Y5.4456 I0.5521 J0.3752
G3 X11.6548 Y5.3655 I0.472 J0.472
G3 X11.7602 Y5.3086 I0.3301 J0.4858
G3 X11.8749 Y5.2743 I0.2248 J0.5426
G3 X12 Y5.2625 I0.1251 J0.6557
G3 X12.1251 Y5.2743 I0 J0.6675
G3 X12.2398 Y5.3086 I-0.11 J0.5769
G3 X12.3452 Y5.3655 I-0.2248 J0.5426
G3 X12.4419 Y5.4456 I-0.3752 J0.5521
G3 X12.522 Y5.5423 I-0.472 J0.472
G3 X12.5789 Y5.6477 I-0.4858 J0.3301
G3 X12.6132 Y5.7624 I-0.5426 J0.2248
G3 X12.625 Y5.8875 I-0.6557 J0.1251
G3 X12.6132 Y6.0126 I-0.6675 J0
G3 X12.5789 Y6.1273 I-0.5769 J-0.11
G3 X12.522 Y6.2327 I-0.5426 J-0.2248
G3 X12.4419 Y6.3294 I-0.5521 J-0.3752
G3 X12.3452 Y6.4095 I-0.472 J-0.472
G3 X12.2398 Y6.4664 I-0.3301 J-0.4858
G3 X12.1251 Y6.5007 I-0.2248 J-0.5426
G3 X12 Y6.5125 I-0.1251 J-0.6557
G3 X11.8749 Y6.5007 I0 J-0.6675
G3 X11.7602 Y6.4664 I0.11 J-0.5769
G3 X11.6548 Y6.4095 I0.2248 J-0.5426
G3 X11.5581 Y6.3294 I0.3752 J-0.5521
G3 X11.478 Y6.2327 I0.472 J-0.472
G3 X11.4211 Y6.1273 I0.4858 J-0.3301
G3 X11.3868 Y6.0126 I0.5426 J-0.2248
G3 X11.375 Y5.8875 I0.6557 J-0.1251
G1 Z-0.7 F30
G3 X11.3868 Y5.7624 I0.6675 J0 F60
G3 X11.4211 Y5.6477 I0.5769 J0.11
G3 X11.478 Y5.5423 I0.5426 J0.2248
G3 X11.5581 Y5.4456 I0.5521 J0.3752
G3 X11.6548 Y5.3655 I0.472 J0.472
G3 X11.7602 Y5.3086 I0.3301 J0.4858
G3 X11.8749 Y5.2743 I0.2248 J0.5426
G3 X12 Y5.2625 I0.1251 J0.6557
G3 X12.1251 Y5.2743 I0 J0.6675
G3 X12.2398 Y5.3086 I-0.11 J0.5769
G3 X12.3452 Y5.3655 I-0.2248 J0.5426
G3 X12.4419 Y5.4456 I-0.3752 J0.5521
G3 X12.522 Y5.5423 I-0.472 J0.472
G3 X12.5789 Y5.6477 I-0.4858 J0.3301
G3 X12.6132 Y5.7624 I-0.5426 J0.2248
G3 X12.625 Y5.8875 I-0.6557 J0.1251
G3 X12.6132 Y6.0126 I-0.6675 J0
G3 X12.5789 Y6.1273 I-0.5769 J-0.11
G3 X12.522 Y6.2327 I-0.5426 J-0.2248
G3 X12.4419 Y6.3294 I-0.5521 J-0.3752
G3 X12.3452 Y6.4095 I-0.472 J-0.472
G3 X12.2398 Y6.4664 I-0.3301 J-0.4858
G3 X12.1251 Y6.5007 I-0.2248 J-0.5426
G3 X12 Y6.5125 I-0.1251 J-0.6557
G3 X11.8749 Y6.5007 I0 J-0.6675
G3 X11.7602 Y6.4664 I0.11 J-0.5769
G3 X11.6548 Y6.4095 I0.2248 J-0.5426
G3 X11.5581 Y6.3294 I0.3752 J-0.5521
G3 X11.478 Y6.2327 I0.472 J-0.472
G3 X11.4211 Y6.1273 I0.4858 J-0.3301
G3 X11.3868 Y6.0126 I0.5426 J-0.2248
G3 X11.375 Y5.8875 I0.6557 J-0.1251
G1 Z-0.75 F30
G3 X11.3868 Y5.7624 I0.6675 J0 F60
G3 X11.4211 Y5.6477 I0.5769 J0.11
G3 X11.478 Y5.5423 I0.5426 J0.2248
G3 X11.5581 Y5.4456 I0.5521 J0.3752
G3 X11.6548 Y5.3655 I0.472 J0.472
G3 X11.7602 Y5.3086 I0.3301 J0.4858
G3 X11.8749 Y5.2743 I0.2248 J0.5426
G3 X12 Y5.2625 I0.1251 J0.6557
G3 X12.1251 Y5.2743 I0 J0.6675
G3 X12.2398 Y5.3086 I-0.11 J0.5769
G3 X12.3452 Y5.3655 I-0.2248 J0.5426
G3 X12.4419 Y5.4456 I-0.3752 J0.5521
G3 X12.522 Y5.5423 I-0.472 J0.472
G3 X12.5789 Y5.6477 I-0.4858 J0.3301
G3 X12.6132 Y5.7624 I-0.5426 J0.2248
G3 X12.625 Y5.8875 I-0.6557 J0.1251
G3 X12.6132 Y6.0126 I-0.6675 J0
G3 X12.5789 Y6.1273 I-0.5769 J-0.11
G3 X12.522 Y6.2327 I-0.5426 J-0.2248
G3 X12.4419 Y6.3294 I-0.5521 J-0.3752
G3 X12.3452 Y6.4095 I-0.472 J-0.472
G3 X12.2398 Y6.4664 I-0.3301 J-0.4858
G3 X12.1251 Y6.5007 I-0.2248 J-0.5426
G3 X12 Y6.5125 I-0.1251 J-0.6557
G3 X11.8749 Y6.5007 I0 J-0.6675
G3 X11.7602 Y6.4664 I0.11 J-0.5769
G3 X11.6548 Y6.4095 I0.2248 J-0.5426
G3 X11.5581 Y6.3294 I0.3752 J-0.5521
G3 X11.478 Y6.2327 I0.472 J-0.472
G3 X11.4211 Y6.1273 I0.4858 J-0.3301
G3 X11.3868 Y6.0126 I0.5426 J-0.2248
G3 X11.375 Y5.8875 I0.6557 J-0.1251
G0 Z0.5
M5
M30
